X:14
T:Steyrer Tanz in F, nr. 23
C:traditionell
R:Steirer
A:Hallstatt, Salzkammergut
B:Corpus Musicae Popularis Austriacae (COMPA), 5.Band: J.M.Schmalnauer " Tanz Musik", Verlag Boehlau, Wien 1996
S:manuscript des Johann Michael Schmalnauer um 1820
N:im der quelle in F
N:um1800
M:3/4
L:1/8
K:F
V:1
AB |\
c"4"fc>A | BdBG E2 | BdB>G | AcAFAB |\
c"4"fc>A | BdBG E2 | BdB>G | F4 :|
V:2
FG |\
AcA>F | GBGE C2 | GBG>E | FAFA,FG |\
AcA>F | GBGE C2 | GBG>E | A,4 :|
